lib/brands/icons/visa.svg

<svg xmlns="http://www.w3.org/2000/svg" fill="none" aria-hidden="true" viewBox="0 0 48 48"><g id="visa-Icon"><path id="Vector" fill="#254AA5" d="M25.2293 20.7078C25.2026 22.8152 27.1074 23.9913 28.5424 24.6905C30.0167 25.408 30.5119 25.868 30.5063 26.5095C30.495 27.4914 29.3302 27.9247 28.2399 27.9416C26.3379 27.9712 25.2322 27.4281 24.3529 27.0173L23.6678 30.2234C24.5499 30.63 26.1832 30.9845 27.8769 31C31.8526 31 34.4537 29.0375 34.4678 25.9946C34.4833 22.1329 29.1262 21.9191 29.1628 20.1929C29.1754 19.6696 29.6748 19.1111 30.7693 18.969C31.3109 18.8973 32.8064 18.8424 34.5016 19.6232L35.167 16.5212C34.2554 16.1892 33.0835 15.8713 31.6247 15.8713C27.8826 15.8713 25.2504 17.8605 25.2293 20.7078ZM41.5609 16.1385C40.835 16.1385 40.223 16.562 39.9501 17.2119L34.2709 30.7721H38.2437L39.0343 28.5873H43.8892L44.3478 30.7721H47.8493L44.7937 16.1385H41.5609ZM42.1166 20.0917L43.2631 25.5866H40.1232L42.1166 20.0917ZM20.4125 16.1385L17.2809 30.7721H21.0666L24.1968 16.1385H20.4125ZM14.812 16.1385L10.8715 26.0987L9.27762 17.6298C9.09052 16.6844 8.35195 16.1385 7.53178 16.1385H1.09004L1 16.5634C2.32239 16.8504 3.82486 17.3132 4.73506 17.8084C5.29215 18.1109 5.45112 18.3754 5.63401 19.0942L8.653 30.7721H12.6539L18.7876 16.1385H14.812Z"/></g></svg>

<svg xmlns="http://www.w3.org/2000/svg" fill="none" aria-hidden="true" viewBox="0 0 48 48"><path fill="#254AA5" d="M25.23 20.708c-.027 2.107 1.877 3.283 3.312 3.983 1.475.717 1.97 1.177 1.964 1.819-.011.981-1.176 1.415-2.266 1.432-1.902.03-3.008-.514-3.887-.925l-.685 3.206c.882.407 2.515.762 4.209.777 3.976 0 6.577-1.962 6.59-5.005.016-3.862-5.34-4.076-5.304-5.802.012-.523.512-1.082 1.606-1.224.542-.072 2.037-.127 3.733.654l.665-3.102c-.912-.332-2.084-.65-3.542-.65-3.742 0-6.375 1.99-6.396 4.837Zm16.33-4.57c-.725 0-1.337.424-1.61 1.074l-5.68 13.56h3.974l.79-2.185h4.855l.459 2.185h3.501L44.794 16.14H41.56Zm.557 3.954 1.146 5.495h-3.14l1.994-5.495Zm-21.704-3.953L17.28 30.771h3.786l3.13-14.633h-3.784Zm-5.601 0-3.94 9.96-1.594-8.47c-.187-.945-.926-1.49-1.746-1.49H1.09l-.09.424c1.322.287 2.825.75 3.735 1.245.557.303.716.567.899 1.286l3.019 11.678h4l6.135-14.633h-3.976Z"/></svg>
